assets/icon-lock.svg

<svg
  class="icon icon-accordion icon-lock"

  focusable="false"
  xmlns="http://www.w3.org/2000/svg"


  viewBox="0 0 20 20"
>
  <path d="M16.5 7.11819H3.5L3.5 18.9997L16.5 18.9997V7.11819ZM3.5 6.11786C2.94772 6.11786 2.5 6.56573 2.5 7.11819V18.9997C2.5 19.5521 2.94772 20 3.5 20H16.5C17.0523 20 17.5 19.5521 17.5 18.9997V7.11819C17.5 6.56572 17.0523 6.11786 16.5 6.11786H3.5Z" fill-rule="evenodd"/>
  <path d="M11.443 11.9199C11.443 12.7406 10.797 13.406 10.0001 13.406C9.20314 13.406 8.55712 12.7406 8.55712 11.9199C8.55712 11.0992 9.20314 10.4338 10.0001 10.4338C10.797 10.4338 11.443 11.0992 11.443 11.9199Z"/>
  <path d="M10.0187 11.9202C10.3639 11.9202 10.6437 12.2001 10.6437 12.5454V15.6971C10.6437 16.0424 10.3639 16.3223 10.0187 16.3223C9.67354 16.3223 9.39372 16.0424 9.39372 15.6971V12.5454C9.39372 12.2001 9.67354 11.9202 10.0187 11.9202Z"/>
  <path d="M6.2417 3.75956C6.2417 1.68321 7.92435 0 10 0C12.0757 0 13.7583 1.68321 13.7583 3.75956V6.12135H12.7583V3.75956C12.7583 2.23568 11.5234 1.00033 10 1.00033C8.47663 1.00033 7.2417 2.23568 7.2417 3.75956V6.12135H6.2417V3.75956Z"/>
</svg>

<svg xmlns="http://www.w3.org/2000/svg" class="icon icon-accordion icon-lock" viewBox="0 0 20 20"><path fill-rule="evenodd" d="M16.5 7.118h-13V19h13zm-13-1a1 1 0 0 0-1 1V19a1 1 0 0 0 1 1h13a1 1 0 0 0 1-1V7.118a1 1 0 0 0-1-1z"/><path d="M11.443 11.92c0 .82-.646 1.486-1.443 1.486s-1.443-.665-1.443-1.486c0-.82.646-1.486 1.443-1.486s1.443.665 1.443 1.486"/><path d="M10.019 11.92c.345 0 .625.28.625.625v3.152a.625.625 0 1 1-1.25 0v-3.152c0-.345.28-.625.625-.625M6.242 3.76a3.759 3.759 0 1 1 7.516 0V6.12h-1V3.76a2.759 2.759 0 1 0-5.516 0V6.12h-1z"/></svg>
